static/img/kroki/5995ab61e028b977be2bcf44a8c8fcde.svg

<?xml version="1.0" encoding="us-ascii" standalone="no"?><svg xmlns="http://www.w3.org/2000/svg" xmlns:xlink="http://www.w3.org/1999/xlink" contentStyleType="text/css" height="374px" preserveAspectRatio="none" style="width:233px;height:374px;" version="1.1" viewBox="0 0 233 374" width="233px" zoomAndPan="magnify"><defs/><g><!--class kubernetes_endpoint--><g id="elem_kubernetes_endpoint"><rect codeLine="23" fill="#3D176E" height="39.7891" id="kubernetes_endpoint" rx="2.5" ry="2.5" style="stroke:#000D19;stroke-width:0.5;" width="219" x="7" y="328.58"/><ellipse cx="22" cy="348.4745" fill="#ADD1B2" rx="11" ry="11" style="stroke:#181818;stroke-width:1.0;"/><path d="M24.9688,354.1152 Q24.3906,354.412 23.75,354.5527 Q23.1094,354.7089 22.4063,354.7089 Q19.9063,354.7089 18.5781,353.0683 Q17.2656,351.412 17.2656,348.287 Q17.2656,345.162 18.5781,343.5058 Q19.9063,341.8495 22.4063,341.8495 Q23.1094,341.8495 23.75,342.0058 Q24.4063,342.162 24.9688,342.4589 L24.9688,345.1777 Q24.3438,344.5995 23.75,344.3339 Q23.1563,344.0527 22.5313,344.0527 Q21.1875,344.0527 20.5,345.1308 Q19.8125,346.1933 19.8125,348.287 Q19.8125,350.3808 20.5,351.4589 Q21.1875,352.5214 22.5313,352.5214 Q23.1563,352.5214 23.75,352.2558 Q24.3438,351.9745 24.9688,351.3964 L24.9688,354.1152 Z " fill="#000000"/><text fill="#D9B8FF" font-family="Helvetica" font-size="17" lengthAdjust="spacing" textLength="177" x="41" y="354.3598">kubernetes_endpoint</text></g><!--class kubernetes_resource--><g id="elem_kubernetes_resource"><rect codeLine="26" fill="#3D176E" height="39.7891" id="kubernetes_resource" rx="2.5" ry="2.5" style="stroke:#000D19;stroke-width:0.5;" width="216" x="8.5" y="167.79"/><ellipse cx="23.5" cy="187.6845" fill="#ADD1B2" rx="11" ry="11" style="stroke:#181818;stroke-width:1.0;"/><path d="M26.4688,193.3252 Q25.8906,193.622 25.25,193.7627 Q24.6094,193.9189 23.9063,193.9189 Q21.4063,193.9189 20.0781,192.2783 Q18.7656,190.622 18.7656,187.497 Q18.7656,184.372 20.0781,182.7158 Q21.4063,181.0595 23.9063,181.0595 Q24.6094,181.0595 25.25,181.2158 Q25.9063,181.372 26.4688,181.6689 L26.4688,184.3877 Q25.8438,183.8095 25.25,183.5439 Q24.6563,183.2627 24.0313,183.2627 Q22.6875,183.2627 22,184.3408 Q21.3125,185.4033 21.3125,187.497 Q21.3125,189.5908 22,190.6689 Q22.6875,191.7314 24.0313,191.7314 Q24.6563,191.7314 25.25,191.4658 Q25.8438,191.1845 26.4688,190.6064 L26.4688,193.3252 Z " fill="#000000"/><text fill="#D9B8FF" font-family="Helvetica" font-size="17" lengthAdjust="spacing" textLength="174" x="42.5" y="193.5698">kubernetes_resource</text></g><!--class resource--><g id="elem_resource"><rect codeLine="29" fill="#3D176E" height="39.7891" id="resource" rx="2.5" ry="2.5" style="stroke:#000D19;stroke-width:0.5;" width="113" x="60" y="7"/><ellipse cx="75" cy="26.8945" fill="#ADD1B2" rx="11" ry="11" style="stroke:#181818;stroke-width:1.0;"/><path d="M77.9688,32.5352 Q77.3906,32.832 76.75,32.9727 Q76.1094,33.1289 75.4063,33.1289 Q72.9063,33.1289 71.5781,31.4883 Q70.2656,29.832 70.2656,26.707 Q70.2656,23.582 71.5781,21.9258 Q72.9063,20.2695 75.4063,20.2695 Q76.1094,20.2695 76.75,20.4258 Q77.4063,20.582 77.9688,20.8789 L77.9688,23.5977 Q77.3438,23.0195 76.75,22.7539 Q76.1563,22.4727 75.5313,22.4727 Q74.1875,22.4727 73.5,23.5508 Q72.8125,24.6133 72.8125,26.707 Q72.8125,28.8008 73.5,29.8789 Q74.1875,30.9414 75.5313,30.9414 Q76.1563,30.9414 76.75,30.6758 Q77.3438,30.3945 77.9688,29.8164 L77.9688,32.5352 Z " fill="#000000"/><text fill="#D9B8FF" font-family="Helvetica" font-size="17" lengthAdjust="spacing" textLength="71" x="94" y="32.7798">resource</text></g><!--reverse link kubernetes_resource to kubernetes_endpoint--><g id="link_kubernetes_resource_kubernetes_endpoint"><path codeLine="32" d="M116.5,225.84 C116.5,256.36 116.5,297.69 116.5,328.25 " fill="none" id="kubernetes_resource-backto-kubernetes_endpoint" style="stroke:#FFAF37;stroke-width:2.0;"/><polygon fill="none" points="116.5,207.84,110.5,225.84,122.5,225.84,116.5,207.84" style="stroke:#FFAF37;stroke-width:2.0;"/></g><!--reverse link resource to kubernetes_resource--><g id="link_resource_kubernetes_resource"><path codeLine="33" d="M116.5,65.05 C116.5,95.57 116.5,136.9 116.5,167.46 " fill="none" id="resource-backto-kubernetes_resource" style="stroke:#FFAF37;stroke-width:2.0;"/><polygon fill="none" points="116.5,47.05,110.5,65.05,122.5,65.05,116.5,47.05" style="stroke:#FFAF37;stroke-width:2.0;"/></g><!--SRC=[XPBBQiCm44Nt-Wf1rWQxeNKCtII6qcv2QReliZMAXMt9ZCODwUFV6pTDKVn8jdCEkdS65Le2XxgXFQ-XpW0TSwKsZK1HyoMYtQMsiiXdIWarZ_lmmHgwAgn53VmHgdSWdOk-yLhel3JW7B_nq4havHPjQ-JnUK9Xt0618SzAA-7SaWXrrX9uPMIIBPJgc_r7PtCPnNSmq2nAm3yb34CP9NtbQjJ5lV-DZVu07lb7Mrk2GSr1nAzriMLdU2K7YvxuPCTd8QKsMtxhpLwEdT00diqtXP1srzbALCwFSGG8blODf8Ej85b85O_AJrCooxlJyR8z_5G31EuDZ6oiDiG_6ViUOWHdMyp1n-UpCVd-AmY2iHGshPm8-m40]--></g></svg>

<svg xmlns="http://www.w3.org/2000/svg" width="233" height="374" viewBox="0 0 233 374"><rect width="219" height="39.789" x="7" y="328.58" fill="#3D176E" rx="2.5" ry="2.5" style="stroke:#000d19;stroke-width:.5"/><circle cx="22" cy="348.474" r="11" fill="#ADD1B2" style="stroke:#181818;stroke-width:1"/><path d="M24.969 354.115q-.578.297-1.219.438-.64.156-1.344.156-2.5 0-3.828-1.64-1.312-1.657-1.312-4.782t1.312-4.781q1.328-1.656 3.828-1.656.703 0 1.344.156.656.156 1.219.453v2.719q-.625-.579-1.219-.844-.594-.281-1.219-.281-1.343 0-2.031 1.078-.687 1.062-.687 3.156t.687 3.172q.688 1.062 2.031 1.062.625 0 1.219-.265.594-.281 1.219-.86z"/><text x="41" y="354.36" fill="#D9B8FF" font-family="Helvetica" font-size="17" textLength="177">kubernetes_endpoint</text><rect width="216" height="39.789" x="8.5" y="167.79" fill="#3D176E" rx="2.5" ry="2.5" style="stroke:#000d19;stroke-width:.5"/><circle cx="23.5" cy="187.685" r="11" fill="#ADD1B2" style="stroke:#181818;stroke-width:1"/><path d="M26.469 193.325q-.578.297-1.219.438-.64.156-1.344.156-2.5 0-3.828-1.64-1.312-1.657-1.312-4.782t1.312-4.781q1.328-1.656 3.828-1.656.703 0 1.344.156.656.156 1.219.453v2.719q-.625-.578-1.219-.844-.594-.281-1.219-.281-1.343 0-2.031 1.078-.687 1.062-.687 3.156t.687 3.172q.688 1.062 2.031 1.062.625 0 1.219-.265.594-.281 1.219-.86z"/><text x="42.5" y="193.57" fill="#D9B8FF" font-family="Helvetica" font-size="17" textLength="174">kubernetes_resource</text><rect width="113" height="39.789" x="60" y="7" fill="#3D176E" rx="2.5" ry="2.5" style="stroke:#000d19;stroke-width:.5"/><circle cx="75" cy="26.895" r="11" fill="#ADD1B2" style="stroke:#181818;stroke-width:1"/><path d="M77.969 32.535q-.578.297-1.219.438-.64.156-1.344.156-2.5 0-3.828-1.64-1.312-1.657-1.312-4.782t1.312-4.781q1.328-1.656 3.828-1.656.703 0 1.344.156.656.156 1.219.453v2.719q-.625-.578-1.219-.844-.594-.281-1.219-.281-1.344 0-2.031 1.078-.687 1.062-.687 3.156t.687 3.172q.688 1.062 2.031 1.062.625 0 1.219-.265.594-.281 1.219-.86z"/><text x="94" y="32.78" fill="#D9B8FF" font-family="Helvetica" font-size="17" textLength="71">resource</text><path fill="none" d="M116.5 225.84v102.41m0-120.41-6 18h12zm0-142.79v102.41m0-120.41-6 18h12z" style="stroke:#ffaf37;stroke-width:2"/></svg>
